svgs/sharp-light/rings-wedding.svg

<svg xmlns="http://www.w3.org/2000/svg" viewBox="0 0 512 512"><!--! Font Awesome Pro 7.1.0 by @fontawesome - https://fontawesome.com License - https://fontawesome.com/license (Commercial License) Copyright 2025 Fonticons, Inc. --><path fill="currentColor" d="M162.1 96l27.8 0 28.3-47.1-11.3-16.9-61.7 0-11.3 16.9 28.3 47.1zM256 48l-32.7 54.4c74.2 20.7 128.7 88.8 128.7 169.6 0 58.3-28.3 110-72 142-8.8-6.3-16.5-14.2-22.8-23.1 37.9-25.9 62.8-69.5 62.8-118.9 0-27.5-7.7-53.3-21.1-75.2-61.5 16.4-106.9 72.5-106.9 139.2 0 79.5 64.5 144 144 144s144-64.5 144-144c0-60.9-37.8-112.9-91.2-134-4.4-13.4-10-26.2-16.7-38.3 79.9 16.7 139.9 87.5 139.9 172.3 0 97.2-78.8 176-176 176-55.3 0-104.7-25.5-137-65.5-7.5 1-15.2 1.5-23 1.5-97.2 0-176-78.8-176-176 0-80.8 54.5-148.9 128.7-169.6L96 48 128 0 224 0 256 48zM179.2 416c-12.3-24-19.2-51.2-19.2-80 0-76.7 49.1-142 117.6-166.1-26-25.9-61.9-41.9-101.6-41.9-79.5 0-144 64.5-144 144S96.5 416 176 416c1.1 0 2.1 0 3.2 0z"/></svg>

<svg xmlns="http://www.w3.org/2000/svg" viewBox="0 0 512 512"><!--! Font Awesome Pro 6.6.0 by @fontawesome - https://fontawesome.com License - https://fontawesome.com/license (Commercial License) Copyright 2024 Fonticons, Inc. --><path d="M162.1 96L176 96l13.9 0 28.3-47.1L206.9 32l-61.7 0L133.9 48.9 162.1 96zM256 48l-32.7 54.4C297.5 123.1 352 191.2 352 272c0 64.4-34.5 120.7-86.1 151.3c-8.6-6.9-16.1-15-22.4-24.1C289 375 320 327.1 320 272c0-27.5-7.7-53.3-21.1-75.2C237.3 213.2 192 269.3 192 336c0 27.5 7.7 53.3 21.1 75.2c6 9.8 13.2 18.8 21.3 26.9c0 0 0 0 0 0C260.5 464 296.4 480 336 480c79.5 0 144-64.5 144-144c0-67.9-47-124.9-110.3-140c-4.9-12.4-10.9-24.2-17.9-35.3C441.6 168.7 512 244.1 512 336c0 97.2-78.8 176-176 176c-55.3 0-104.7-25.5-137-65.5c-7.5 1-15.2 1.5-23 1.5C78.8 448 0 369.2 0 272c0-80.8 54.5-148.9 128.7-169.6L96 48 128 0l96 0 32 48zM179.2 416c-12.3-24-19.2-51.2-19.2-80c0-76.7 49.1-142 117.6-166.1C251.5 144 215.6 128 176 128C96.5 128 32 192.5 32 272s64.5 144 144 144c1.1 0 2.1 0 3.2 0z"/></svg>
